X:1
T:James Gibb editions
T:Psalm 58 (Becker) - Schütz
%%score [ ( 1 2 ) ( 3 4 ) ]
L:1/8
Q:1/4=100
M:2/2
K:C
V:1 treble nm="Soprano Alto"
V:2 treble 
V:3 bass nm="Tenor Bass"
V:4 bass 
V:1
"^Cornelius Becker\n(1561-1604)""^Psalm 58, SWV 155""^Heinrich Schütz\n(1585-1672)" D4 A2 F2 | %1
w: ~Wie nun, ihr|
w: Was gleich und|
w: |
 E4 D4 | F2 G2 A4 | A4 B2 c2 | A4 |[M:2/2] G4 (FG A4 | ^G2) A8 x2 :| F4 _B2 A2 | G4 c4 | A2 G2 F4 | %10
w: Her- ren,|seid ihr stumm,|daß ihr kein|Recht|könnt spre\- * *|* chen?||||
w: grad, das|macht ihr krumm,|helft nie- mand|zu|||mut- wil- lig|übt ihr|G'walt im Land,|
w: ||||sein Rech\- * *|* ten,||||
 G4 c2 B2 | A4 d4 | B2 A2 G4 | B4 e2 d2 | (c3 B A2) G2 | (F2 G2 E4) | D8 |] %17
w: nur Fre- vel|geht durch|eu- re Hand,|was will zu-|letzt * * draus|wer\- * *|den?|
w: |||||||
w: |||||||
V:2
 A,4 D2 D2 | C4 _B,4 | C2 E2 F4 | E4 G2 G2 | F4 |[M:2/2] E4 (D4 x2 | E4) E8 :| D4 F2 F2 | E4 E4 | %9
 F2 E2 F4 | E4 E2 G2 | ^F4 G4 | G2 ^F2 G4 | G4 G2 G2 | (E3 G C2) E2 | (A,2 D4 ^C2) | D8 |] %17
V:3
 F,4 F,2 A,2 | A,4 F,4 | A,2 C2 C4 | C4 D2 E2- | C4 |[M:2/2] C4 (A,4 x2 | B,4) A,8 :| A,4 D2 C2 | %8
 C6 A,2 | C2 C2 A,4 | %10
"^2. Von Mutterleib die böse Art, gottlos und ganz verkehret,\ntreibt Büberei zu jeder Fahrt, mit Lügen sie sich nähret,\nunrichtig gehn sie ihren Gang und stechen um sich wie ein Schlang',\ngiftig mit großem Wüten." C4 C2 D2 | %11
 D6 B,2 | D2 D2 B,4 | D4 C2 B,2 | (C3 E A,2) C2 | (F,2 _B,2 A,4) | A,8 |] %17
V:4
 D,4 D,2 D,2 | A,,4 _B,,4 | F,,2 C,2 F,4 | A,4 G,2 C,2 | F,4 |[M:2/2] C,4 (D,2 F,2 x2 | %6
 E,4) A,,8 :| D,4 _B,,2 F,,2 | C,4 A,,4 | F,,2 C,2 F,4 | C,4 A,,2 G,,2 | D,4 B,,4 | G,,2 D,2 G,4 | %13
 G,4 C,2 G,2 | (A,3 E, F,2) C,2 | (D,2 G,,2 A,,4) | D,8 |] %17

